FINK
CUT[KAISER WILHELM NUN DER ZWEITE]
REG[Europa, Mitteleuropa, Deutschland]
KEY[F0465  16  F 3/4]
MEL[3_.2  2__1__1_.2  1__-7__
    2_.3  4__.2_3_5_  2__0__
    3_.2  2__1__6_.5  5__4#__
    5_6_  7_5_6__.5_  5__0___
    2_.22_2_3_1_  3__2__
    6_.5  4__.2_3_1_  2__0__
    5_.5  5__.6_7_+1_  +1__6__
    5_4_  3_3_4__2__  5___
    +1_.5  6_4_3__2__  1___ //] >>
FCT[Vaterlands -, Heimat - Lied]
